priv/static/svgs/duotones/money-back.svg

<svg width="174" height="174" viewBox="0 0 174 174" fill="none" xmlns="http://www.w3.org/2000/svg">
  <symbol id="item" viewBox="0 0 174 174"  fill="none">
    
<path opacity="0.1" d="M132.798 77.8364L125.344 71.9519C128.613 67.7674 127.959 61.7522 123.775 58.3523C119.59 55.0832 113.575 55.737 110.175 59.9215L102.852 54.0371C101.022 52.5986 98.2755 52.8602 96.837 54.6909L57.9997 103.466C56.5612 105.297 56.8228 108.043 58.6535 109.482L66.1071 115.366C62.838 119.551 63.4918 125.566 67.6763 128.966C71.8608 132.235 77.876 131.581 81.2759 127.397L88.7296 133.281C90.5603 134.719 93.3064 134.458 94.7448 132.627L133.582 83.8516C134.89 82.0209 134.628 79.2748 132.798 77.8364Z" fill="currentColor"/>
<path d="M65.6606 69.6187L66.2018 68.9395" stroke="currentColor" stroke-width="2" stroke-miterlimit="10" stroke-linecap="round" stroke-linejoin="round"/>
<path d="M70.2607 63.6422L82.7077 47.886C83.1136 47.3427 83.7901 47.3427 84.1959 47.7502L110.984 69.0753C111.525 69.4828 111.525 70.1619 111.119 70.5694L76.0783 115.257C75.6725 115.8 74.996 115.8 74.5901 115.393L47.8021 93.932C47.2609 93.5245 47.2609 92.8453 47.6668 92.4378L61.7373 74.6443" stroke="currentColor" stroke-width="2" stroke-miterlimit="10" stroke-linecap="round" stroke-linejoin="round"/>
<path d="M117.343 65.6796L109.631 59.5673C113.013 55.2208 112.337 48.9726 108.007 45.4411C103.678 42.0454 97.4546 42.7245 93.9369 47.071L86.3605 40.9587C84.4664 39.4646 81.6253 39.7363 80.137 41.6379L39.955 92.302C38.4667 94.2036 38.7373 97.056 40.6314 98.5501L48.3431 104.662C44.9608 109.009 45.6373 115.257 49.9667 118.789C54.296 122.184 60.5195 121.505 64.0371 117.159L71.7489 123.271C73.643 124.765 76.4841 124.493 77.9723 122.592L118.154 71.9277C119.507 70.0261 119.237 67.1737 117.343 65.6796Z" stroke="currentColor" stroke-width="2" stroke-miterlimit="10" stroke-linejoin="round"/>
<path d="M102.596 55.6282C104.389 55.6282 105.843 54.1687 105.843 52.3683C105.843 50.5679 104.389 49.1084 102.596 49.1084C100.802 49.1084 99.3486 50.5679 99.3486 52.3683C99.3486 54.1687 100.802 55.6282 102.596 55.6282Z" stroke="currentColor" stroke-width="2" stroke-miterlimit="10" stroke-linejoin="round"/>
<path d="M55.6489 114.85C57.4422 114.85 58.8959 113.39 58.8959 111.59C58.8959 109.789 57.4422 108.33 55.6489 108.33C53.8556 108.33 52.4019 109.789 52.4019 111.59C52.4019 113.39 53.8556 114.85 55.6489 114.85Z" stroke="currentColor" stroke-width="2" stroke-miterlimit="10" stroke-linejoin="round"/>
<path d="M75.8076 76.41C78.0492 76.41 79.8664 74.5857 79.8664 72.3352C79.8664 70.0847 78.0492 68.2603 75.8076 68.2603C73.566 68.2603 71.7488 70.0847 71.7488 72.3352C71.7488 74.5857 73.566 76.41 75.8076 76.41Z" stroke="currentColor" stroke-width="2" stroke-miterlimit="10" stroke-linejoin="round"/>
<path d="M80.8134 97.1918C83.055 97.1918 84.8722 95.3674 84.8722 93.1169C84.8722 90.8664 83.055 89.0421 80.8134 89.0421C78.5718 89.0421 76.7546 90.8664 76.7546 93.1169C76.7546 95.3674 78.5718 97.1918 80.8134 97.1918Z" stroke="currentColor" stroke-width="2" stroke-miterlimit="10" stroke-linejoin="round"/>
<path d="M65.1194 86.5971L90.0133 78.8549" stroke="currentColor" stroke-width="2" stroke-miterlimit="10" stroke-linecap="round" stroke-linejoin="round"/>

  </symbol>
</svg>

<svg width="174" height="174" viewBox="0 0 174 174" fill="none" xmlns="http://www.w3.org/2000/svg">
  <symbol id="item" viewBox="0 0 174 174"  fill="none">
    <path opacity=".1" d="m132.798 77.836-7.454-5.884c3.269-4.185 2.615-10.2-1.569-13.6-4.185-3.269-10.2-2.615-13.6 1.57l-7.323-5.885c-1.83-1.438-4.577-1.177-6.015.654L58 103.466c-1.439 1.831-1.177 4.577.654 6.016l7.453 5.884c-3.269 4.185-2.615 10.2 1.57 13.6 4.184 3.269 10.199 2.615 13.599-1.569l7.454 5.884c1.83 1.438 4.576 1.177 6.015-.654l38.837-48.775c1.308-1.831 1.046-4.577-.784-6.016Z" fill="currentColor"/><path d="m65.66 69.619.542-.68" stroke="currentColor" stroke-width="2" stroke-miterlimit="10" stroke-linecap="round" stroke-linejoin="round"/><path d="m70.26 63.642 12.448-15.756c.406-.543 1.082-.543 1.488-.136l26.788 21.325c.541.408.541 1.087.135 1.494l-35.04 44.688c-.406.543-1.083.543-1.489.136L47.802 93.932c-.541-.407-.541-1.087-.135-1.494l14.07-17.794" stroke="currentColor" stroke-width="2" stroke-miterlimit="10" stroke-linecap="round" stroke-linejoin="round"/><path d="m117.343 65.68-7.712-6.113a10.145 10.145 0 0 0-1.624-14.126c-4.329-3.396-10.552-2.717-14.07 1.63l-7.576-6.112c-1.895-1.494-4.736-1.223-6.224.679L39.955 92.302c-1.488 1.902-1.218 4.754.676 6.248l7.712 6.112a10.146 10.146 0 0 0 1.624 14.127c4.329 3.395 10.553 2.716 14.07-1.63l7.712 6.112c1.894 1.494 4.735 1.222 6.223-.679l40.182-50.664c1.353-1.902 1.083-4.754-.811-6.248Z" stroke="currentColor" stroke-width="2" stroke-miterlimit="10" stroke-linejoin="round"/><path d="M102.596 55.628a3.254 3.254 0 0 0 3.247-3.26c0-1.8-1.454-3.26-3.247-3.26a3.253 3.253 0 0 0-3.247 3.26c0 1.8 1.453 3.26 3.247 3.26ZM55.649 114.85a3.254 3.254 0 0 0 3.247-3.26 3.253 3.253 0 0 0-3.247-3.26 3.253 3.253 0 0 0-3.247 3.26c0 1.8 1.454 3.26 3.247 3.26Z" stroke="currentColor" stroke-width="2" stroke-miterlimit="10" stroke-linejoin="round"/><path d="M75.808 76.41a4.067 4.067 0 0 0 4.058-4.075 4.067 4.067 0 0 0-4.058-4.075 4.067 4.067 0 0 0-4.06 4.075 4.067 4.067 0 0 0 4.06 4.075ZM80.813 97.192a4.067 4.067 0 0 0 4.06-4.075 4.067 4.067 0 0 0-4.06-4.075 4.067 4.067 0 0 0-4.058 4.075 4.067 4.067 0 0 0 4.058 4.075Z" stroke="currentColor" stroke-width="2" stroke-miterlimit="10" stroke-linejoin="round"/><path d="m65.12 86.597 24.893-7.742" stroke="currentColor" stroke-width="2" stroke-miterlimit="10" stroke-linecap="round" stroke-linejoin="round"/>
  </symbol>
</svg>
